X: 20
T:Pretty Girl
M:8/8
L:1/8
Q:120
C:Hogsnort Rupert's Original Flagon Band
K:D
A|&quot;D&quot;d d2 d2 A d2|f f2 f3 z d|
&quot;A&quot;e2 e e2 e2 d-|&quot;G&quot;d d2 D-&quot;D&quot;D3z|!
&quot;D&quot;d d2 d2 A d2|f f2 f3 z d|
&quot;A&quot;e2 e e2 e2 d-|&quot;G&quot;d d2 D-&quot;D&quot;D3z|!
&quot;Bm&quot;z2 BB B4|&quot;D&quot;z2 dd d4|
&quot;E&quot;z2 ee e4|&quot;A&quot;zzz2&quot;G&quot;zzz2|!
&quot;D&quot;ddzd2Ad2|ffzf3dd|
&quot;A&quot;e2e2&quot;G&quot;dd2d-|&quot;D&quot;d3D4A|!
&quot;D&quot;d2dd2Ad2|ff2f4d|
&quot;A&quot;e2e2&quot;G&quot;dd2d-|&quot;D&quot;d3D4z|
T:Instrumental
&quot;D&quot;[D4A4d4f4]z4|[D4A4d4a4][D4A4d4f4]|
[D2A2d2f2] [DAdf]&quot;A&quot;[A,2E2A2c2e2][A,EAce] &quot;D&quot;[D2A2d2f2]|
&quot;D&quot;[D4A4d4f4]z4|[D4A4d4a4][D4A4d4f4]|
[D2A2d2f2] [DAdf]&quot;A&quot;[A,2E2A2c2e2][A,EAce] &quot;D&quot;[DAdf] :||
